X: 1
T: Mona's Reel
C: Lissa Schneckenburger
R: reel
Z: 2016 John Chambers <jc:trillian.mit.edu>
S: Handout at Roaring Jelly practice
M: C|
L: 1/8
K: G
"D7"F |\
"G"G3B AGBc- | cBAG BAGF |\
"C"E3G EDB,D | "Am"EDB,D "D7"A,3D ||\
"G"G3B AGBc- | cBAG BAGF |
"C"E3G "(D7)"EDB,A, |[1 "G"G,4 G,B,D :|\
[2 "G"G,4 G,A,B,G, |: "Am"A,3A,- A,G,A,B, |\
"(D7)"C2B,C A,G,B,D | "C"E3E- EDEF |
"(D7)"GFED "G"B,DG,B, || "Am"A,3A,- A,G,A,B, |\
"(D7)"C2B,C A,G,B,D | "C"E3E- EDB,D |\
[1 "(Em)"E4 EDB,D :|[2 "Em"E4- E3 |]
